mubook/img/plus-icon.svg

<?xml version="1.0" encoding="UTF-8" standalone="no"?>
<!-- Created with Inkscape (http://www.inkscape.org/) -->

<svg
   width="144.00024mm"
   height="144.00024mm"
   viewBox="0 0 144.00024 144.00024"
   version="1.1"
   id="svg1"
   xmlns="http://www.w3.org/2000/svg"
   xmlns:svg="http://www.w3.org/2000/svg">
  <defs
     id="defs1" />
  <g
     id="layer1"
     transform="translate(-35.818007,-96.650008)"
     style="display:none">
    <rect
       style="fill:#c50000;fill-opacity:1;stroke:#6a0088;stroke-width:0;stroke-linecap:round;stroke-linejoin:round;stroke-dasharray:none;stroke-opacity:1"
       id="rect1"
       width="140"
       height="25"
       x="37.818035"
       y="156.15004"
       ry="12.500001" />
    <rect
       style="fill:#c50000;stroke:#c50000;stroke-width:0;stroke-linecap:round;stroke-linejoin:round;stroke-dasharray:none;stroke-opacity:1"
       id="rect2"
       width="140"
       height="25"
       x="-238.65004"
       y="95.318039"
       ry="12.5"
       transform="rotate(-90)" />
  </g>
  <g
     id="g7"
     transform="translate(-35.818007,-96.650008)"
     style="display:inline">
    <path
       id="rect6"
       style="fill:#6a0088;fill-opacity:1;stroke:#ffffff;stroke-width:4;stroke-linecap:round;stroke-linejoin:round;stroke-dasharray:none;stroke-opacity:1"
       d="m 107.81787,98.650008 c -6.92499,0 -12.500014,5.575022 -12.500014,12.500012 v 44.99984 H 50.318019 c -6.924994,0 -12.500012,5.57502 -12.500012,12.50001 0,6.92499 5.575018,12.50001 12.500012,12.50001 h 44.999837 v 45.00036 c 0,6.92499 5.575024,12.50001 12.500014,12.50001 6.92499,0 12.50001,-5.57502 12.50001,-12.50001 v -45.00036 h 45.00035 c 6.925,0 12.50002,-5.57502 12.50002,-12.50001 0,-6.92499 -5.57502,-12.50001 -12.50002,-12.50001 h -45.00035 v -44.99984 c 0,-6.92499 -5.57502,-12.500012 -12.50001,-12.500012 z" />
  </g>
</svg>

<?xml version="1.0" encoding="UTF-8" standalone="no"?>
<!-- Created with Inkscape (http://www.inkscape.org/) -->

<svg
   width="150.6268mm"
   height="150.6268mm"
   viewBox="0 0 150.6268 150.6268"
   version="1.1"
   id="svg1"
   sodipodi:docname="plus-icon.svg"
   inkscape:version="1.3.2 (091e20ef0f, 2023-11-25, custom)"
   inkscape:export-filename="plus-icon.svg"
   inkscape:export-xdpi="96"
   inkscape:export-ydpi="96"
   xmlns:inkscape="http://www.inkscape.org/namespaces/inkscape"
   xmlns:sodipodi="http://sodipodi.sourceforge.net/DTD/sodipodi-0.dtd"
   xmlns="http://www.w3.org/2000/svg"
   xmlns:svg="http://www.w3.org/2000/svg">
  <sodipodi:namedview
     id="namedview1"
     pagecolor="#ffffff"
     bordercolor="#000000"
     borderopacity="0.25"
     inkscape:showpageshadow="2"
     inkscape:pageopacity="0.0"
     inkscape:pagecheckerboard="0"
     inkscape:deskcolor="#d1d1d1"
     inkscape:document-units="mm"
     inkscape:zoom="1.545763"
     inkscape:cx="284.64907"
     inkscape:cy="284.64907"
     inkscape:window-width="1918"
     inkscape:window-height="1078"
     inkscape:window-x="0"
     inkscape:window-y="0"
     inkscape:window-maximized="1"
     inkscape:current-layer="svg1" />
  <defs
     id="defs1" />
  <g
     id="layer1"
     transform="translate(-32.504636,-93.336637)"
     style="display:none">
    <rect
       style="fill:#c50000;fill-opacity:1;stroke:#6a0088;stroke-width:0;stroke-linecap:round;stroke-linejoin:round;stroke-dasharray:none;stroke-opacity:1"
       id="rect1"
       width="140"
       height="25"
       x="37.818035"
       y="156.15004"
       ry="12.500001" />
    <rect
       style="fill:#c50000;stroke:#c50000;stroke-width:0;stroke-linecap:round;stroke-linejoin:round;stroke-dasharray:none;stroke-opacity:1"
       id="rect2"
       width="140"
       height="25"
       x="-238.65004"
       y="95.318039"
       ry="12.5"
       transform="rotate(-90)" />
  </g>
  <g
     id="g7"
     transform="translate(-32.504636,-93.336637)"
     style="display:inline">
    <path
       id="rect6"
       style="fill:#c50000;stroke:#ffffff;stroke-width:4;stroke-linecap:round;stroke-linejoin:round;stroke-dasharray:none;stroke-opacity:1;fill-opacity:1"
       d="M 107.81787 98.650008 C 100.89288 98.650008 95.317856 104.22503 95.317856 111.15002 L 95.317856 156.14986 L 50.318019 156.14986 C 43.393025 156.14986 37.818007 161.72488 37.818007 168.64987 C 37.818007 175.57486 43.393025 181.14988 50.318019 181.14988 L 95.317856 181.14988 L 95.317856 226.15024 C 95.317856 233.07523 100.89288 238.65025 107.81787 238.65025 C 114.74286 238.65025 120.31788 233.07523 120.31788 226.15024 L 120.31788 181.14988 L 165.31823 181.14988 C 172.24323 181.14988 177.81825 175.57486 177.81825 168.64987 C 177.81825 161.72488 172.24323 156.14986 165.31823 156.14986 L 120.31788 156.14986 L 120.31788 111.15002 C 120.31788 104.22503 114.74286 98.650008 107.81787 98.650008 z "
       inkscape:label="rect6" />
  </g>
</svg>
